X:46
T:Paddy's Return
R:jig
H:See also #202 "The Frost Is All Over"
Z:id:hn-jig-46
M:6/8
K:D
AFD DFA|B2B BAF|ABA F2E|FEE E2B|AFD DFA|B2B BAF|ABA FEE|1 FDD D2B:|2 FDD D2g||
|:fed d2g|fed d2g|fed def|g2f efg|fed B2d|A2B F2G|ABA F2E|1 FDD D2g:|2 FDD D2B||
P:variations
AFD DFA|BdB BAF|ABA F2D|FEE E2B|AFD DFA|BdB BAF|ABA F2E|1 FDD D2B:|2 FDD D2g||
|:fed dcd|fed d2e|fef def|g2f efg|fed B2d|A2d F2G|ABA F2E|1 FDD D2g:|2 FDD D2B||
<end>
<start>
